Obsidian/actions/22s/tool_color_eraser.svg

<svg height="22" viewBox="0 0 22 22" width="22" xmlns="http://www.w3.org/2000/svg"><path d="m6.9492188 2.0429688c-.2312201.04133-.5168594.2847012-.7246094.6445312l-5 8.660156c-.27700002.47978-.30627627.978678-.0664063 1.117188l4.3300781 2.5c.2398901.1385.6565938-.137408.9335938-.617188l5-8.660156c.277-.47978.306286-.9767644.066406-1.1152344l-4.3300779-2.5c-.06-.03462-.1319043-.0430669-.2089843-.0292968zm4.5468752 6.9550781c-.10352.28441-.243392.5632775-.394532.8359375-.770269 1.3500996-1.9754964 2.2729996-2.0917964 3.1249996-.003.01273-.0110719.026383-.0136718.039063l.0117187.003906c-.002.02931-.0117187.058661-.0117187.087891 0 1.0543 1.1193002 1.908203 2.5000002 1.908203s2.5-.853873 2.5-1.908203c0-.02923-.006766-.058591-.009766-.087891l.009766-.003906c-.002-.01264-.010472-.026333-.013672-.039063-.11628-.85206-1.321497-1.776853-2.091797-3.1269528-.15114-.27266-.291021-.5495743-.394531-.8339843z" fill="#bebebe" transform="translate(3 3)"/></svg>

<svg xmlns="http://www.w3.org/2000/svg" width="22" height="22" viewBox="0 0 22 22">
 <defs>
  <style id="current-color-scheme" type="text/css">
   .ColorScheme-Text { color:#bebebe; } .ColorScheme-Highlight { color:#4285f4; }
  </style>
 </defs>
 <path style="fill:currentColor" class="ColorScheme-Text" d="M 6.9492188 2.0429688 C 6.7179987 2.0842988 6.4323594 2.32767 6.2246094 2.6875 L 1.2246094 11.347656 C 0.94760938 11.827436 0.91833313 12.326334 1.1582031 12.464844 L 5.4882812 14.964844 C 5.7281713 15.103344 6.144875 14.827436 6.421875 14.347656 L 11.421875 5.6875 C 11.698875 5.20772 11.728161 4.7107356 11.488281 4.5722656 L 7.1582031 2.0722656 C 7.0982031 2.0376456 7.0262988 2.0291987 6.9492188 2.0429688 z M 11.496094 8.9980469 C 11.392574 9.2824569 11.252702 9.5613244 11.101562 9.8339844 C 10.331293 11.184084 9.1260656 12.106984 9.0097656 12.958984 C 9.0067656 12.971714 8.9986937 12.985367 8.9960938 12.998047 L 9.0078125 13.001953 C 9.0058125 13.031263 8.9960938 13.060614 8.9960938 13.089844 C 8.9960938 14.144144 10.115394 14.998047 11.496094 14.998047 C 12.876794 14.998047 13.996094 14.144174 13.996094 13.089844 C 13.996094 13.060614 13.989328 13.031253 13.986328 13.001953 L 13.996094 12.998047 C 13.994094 12.985407 13.985622 12.971714 13.982422 12.958984 C 13.866142 12.106924 12.660925 11.182131 11.890625 9.8320312 C 11.739485 9.5593712 11.599604 9.2824569 11.496094 8.9980469 z" transform="translate(3 3)"/>
</svg>
